res/skins/LateNight/palemoon/buttons/btn__loop_out.svg

<?xml version="1.0" encoding="UTF-8" standalone="no"?>
<svg
   xmlns:dc="http://purl.org/dc/elements/1.1/"
   xmlns:cc="http://creativecommons.org/ns#"
   xmlns:rdf="http://www.w3.org/1999/02/22-rdf-syntax-ns#"
   xmlns:svg="http://www.w3.org/2000/svg"
   xmlns="http://www.w3.org/2000/svg"
   width="24"
   height="24"
   version="1.1"
   id="svg14">
  <metadata
     id="metadata20">
    <rdf:RDF>
      <cc:Work
         rdf:about="">
        <dc:format>image/svg+xml</dc:format>
        <dc:type
           rdf:resource="http://purl.org/dc/dcmitype/StillImage" />
        <dc:title></dc:title>
      </cc:Work>
    </rdf:RDF>
  </metadata>
  <defs
     id="defs18" />
  <g
     style="display:none;opacity:0.360743"
     id="layer1">
    <g
       style="stroke-width:1.6;stroke-linejoin:round;stroke-miterlimit:4;stroke-dasharray:none"
       id="g6"
       stroke-width="1.6"
       stroke="#000001"
       fill="none">
      <path
         style="stroke-width:1.6;stroke-linejoin:round;stroke-miterlimit:4;stroke-dasharray:none"
         id="path2"
         color="#000001"
         d="M 20,18 V 6 H 15 V 3 L 8,6.75 15,10.5 14.9999,7.5001 18.5,7.5 v 9 L 17,16.4999 V 18 Z" />
      <path
         style="stroke-width:1.6;stroke-linejoin:round;stroke-miterlimit:4;stroke-dasharray:none"
         id="path4"
         color="#000001"
         d="m 4,6 v 12 h 5 v 3 L 16,17.25 9,13.5 9.0001,16.4999 5.5,16.5 v -9 L 7,7.5001 V 6 Z" />
    </g>
    <path
       style="fill:#918273"
       d="M 20,17.999999 V 5.9999996 h -5 v -3 l -7,3.75 7,3.7500004 -10e-5,-2.9999004 3.5001,-1e-4 v 8.9999994 l -1.5,-10e-5 v 1.5001 z"
       id="path8" />
    <path
       style="fill:#918273"
       d="M 4,5.9999996 V 17.999999 h 5 v 3 l 7,-3.75 -7,-3.75 10e-5,2.9999 -3.5001,10e-5 V 7.4999996 l 1.5,1e-4 v -1.5001 z"
       color="#000001"
       id="path10" />
  </g>
  <path
     style="color:#000000;font-style:normal;font-variant:normal;font-weight:normal;font-stretch:normal;font-size:medium;line-height:normal;font-family:sans-serif;font-variant-ligatures:normal;font-variant-position:normal;font-variant-caps:normal;font-variant-numeric:normal;font-variant-alternates:normal;font-variant-east-asian:normal;font-feature-settings:normal;font-variation-settings:normal;text-indent:0;text-align:start;text-decoration:none;text-decoration-line:none;text-decoration-style:solid;text-decoration-color:#000000;letter-spacing:normal;word-spacing:normal;text-transform:none;writing-mode:lr-tb;direction:ltr;text-orientation:mixed;dominant-baseline:auto;baseline-shift:baseline;text-anchor:start;white-space:normal;shape-padding:0;shape-margin:0;inline-size:0;clip-rule:nonzero;display:inline;overflow:visible;visibility:visible;isolation:auto;mix-blend-mode:normal;color-interpolation:sRGB;color-interpolation-filters:linearRGB;solid-color:#000000;solid-opacity:1;vector-effect:none;fill:#918273;fill-opacity:1;fill-rule:nonzero;stroke:#000000;stroke-width:1.6;stroke-linecap:round;stroke-linejoin:round;stroke-miterlimit:4;stroke-dasharray:none;stroke-dashoffset:0;stroke-opacity:1;color-rendering:auto;image-rendering:auto;shape-rendering:auto;text-rendering:auto;enable-background:accumulate;stop-color:#000000"
     d="m 11,3.9999464 -7,3.75 7,3.7499996 V 8.509712 h 3.490234 V 17.49018 H 13 v 1.509766 h 1.761719 C 15.469321,18.999946 16,18.384365 16,17.720649 V 8.2792433 C 16,7.6155271 15.46932,6.9999464 14.761719,6.9999464 H 11 Z"
     id="path880-5" />
  <path
     style="color:#000000;font-style:normal;font-variant:normal;font-weight:normal;font-stretch:normal;font-size:medium;line-height:normal;font-family:sans-serif;font-variant-ligatures:normal;font-variant-position:normal;font-variant-caps:normal;font-variant-numeric:normal;font-variant-alternates:normal;font-variant-east-asian:normal;font-feature-settings:normal;font-variation-settings:normal;text-indent:0;text-align:start;text-decoration:none;text-decoration-line:none;text-decoration-style:solid;text-decoration-color:#000000;letter-spacing:normal;word-spacing:normal;text-transform:none;writing-mode:lr-tb;direction:ltr;text-orientation:mixed;dominant-baseline:auto;baseline-shift:baseline;text-anchor:start;white-space:normal;shape-padding:0;shape-margin:0;inline-size:0;clip-rule:nonzero;display:inline;overflow:visible;visibility:visible;isolation:auto;mix-blend-mode:normal;color-interpolation:sRGB;color-interpolation-filters:linearRGB;solid-color:#000000;solid-opacity:1;vector-effect:none;fill:#918273;fill-opacity:1;fill-rule:nonzero;stroke:none;stroke-width:1.50997;stroke-linecap:round;stroke-linejoin:round;stroke-miterlimit:4;stroke-dasharray:none;stroke-dashoffset:0;stroke-opacity:1;color-rendering:auto;image-rendering:auto;shape-rendering:auto;text-rendering:auto;enable-background:accumulate;stop-color:#000000"
     d="M 10.433594,6.9999464 V 8.509712 h 4.05664 V 17.49018 H 13 v 1.509766 h 1.761719 C 15.469321,18.999946 16,18.384365 16,17.720649 V 8.2792433 C 16,7.6155271 15.46932,6.9999464 14.761719,6.9999464 Z"
     id="path849" />
  <path
     id="path903"
     d="M 4,7.749946 11,3.9999464 V 11.499946 Z"
     style="fill:#918273;fill-opacity:1;stroke:none;stroke-width:1px;stroke-linecap:butt;stroke-linejoin:miter;stroke-opacity:1" />
</svg>

<svg width="24" height="24" version="1.1" xmlns="http://www.w3.org/2000/svg">
  <g display="none" opacity=".360743">
    <g fill="none" stroke="#000001" stroke-linejoin="round" stroke-width="1.6">
      <path d="m20 18v-12h-5v-3l-7 3.75 7 3.75-1e-4 -2.9999 3.5001-1e-4v9l-1.5-1e-4v1.5001z" color="#000001"/>
      <path d="m4 6v12h5v3l7-3.75-7-3.75 1e-4 2.9999-3.5001 1e-4v-9l1.5 1e-4v-1.5001z" color="#000001"/>
    </g>
    <path d="m20 18v-12h-5v-3l-7 3.75 7 3.75-1e-4 -2.9999 3.5001-1e-4v9l-1.5-1e-4v1.5001z" fill="#918273"/>
    <path d="m4 6v12h5v3l7-3.75-7-3.75 1e-4 2.9999-3.5001 1e-4v-9l1.5 1e-4v-1.5001z" color="#000001" fill="#918273"/>
  </g>
  <path d="m11 3.99995-7 3.75 7 3.75v-2.99023h3.49023v8.98047h-1.49023v1.50977h1.76172c0.707602 0 1.23828-0.615581 1.23828-1.2793v-9.44141c0-0.663716-0.53068-1.2793-1.23828-1.2793h-3.76172z" color="#000000" color-rendering="auto" dominant-baseline="auto" fill="#918273" image-rendering="auto" shape-rendering="auto" solid-color="#000000" stop-color="#000000" stroke="#000" stroke-linecap="round" stroke-linejoin="round" stroke-width="1.6" style="font-feature-settings:normal;font-variant-alternates:normal;font-variant-caps:normal;font-variant-east-asian:normal;font-variant-ligatures:normal;font-variant-numeric:normal;font-variant-position:normal;font-variation-settings:normal;inline-size:0;isolation:auto;mix-blend-mode:normal;shape-margin:0;shape-padding:0;text-decoration-color:#000000;text-decoration-line:none;text-decoration-style:solid;text-indent:0;text-orientation:mixed;text-transform:none;white-space:normal"/>
  <path d="m10.4336 6.99995v1.50977h4.05664v8.98047h-1.49023v1.50977h1.76172c0.707602 0 1.23828-0.615581 1.23828-1.2793v-9.44141c0-0.663716-0.53068-1.2793-1.23828-1.2793z" color="#000000" color-rendering="auto" dominant-baseline="auto" fill="#918273" image-rendering="auto" shape-rendering="auto" solid-color="#000000" stop-color="#000000" style="font-feature-settings:normal;font-variant-alternates:normal;font-variant-caps:normal;font-variant-east-asian:normal;font-variant-ligatures:normal;font-variant-numeric:normal;font-variant-position:normal;font-variation-settings:normal;inline-size:0;isolation:auto;mix-blend-mode:normal;shape-margin:0;shape-padding:0;text-decoration-color:#000000;text-decoration-line:none;text-decoration-style:solid;text-indent:0;text-orientation:mixed;text-transform:none;white-space:normal"/>
  <path d="m4 7.74995 7-3.75v7.5z" fill="#918273"/>
</svg>
